X:1
T:Title
%%score { ( 1 3 ) | ( 2 4 ) }
L:1/8
M:4/4
K:D
V:1 treble nm="Grand Piano"
V:3 treble 
V:2 bass 
V:4 bass 
V:1
 z4 z2[Q:1/4=100] [FA][EG] | FFF[EG] [FA][Fd][Ac][CGB] | [DFA]6 BF | G6 z2 | F6 z2 | %5
 [A,DF][A,DF][A,DF][A,EG] [DFA][Fd][Ac][GB] | [FA]6 [FA][=FB] | [Ec]3 [Ac] [^GB]2 [Ge]2 | %8
[M:7/8] e- e3 A3 |[M:1/4] Bc |[M:4/4] [Fd][Fd][Fc][FB] [FA]2 [FB]2 | z D3- D2 [GB][Gc] | %12
 [Fd][Fd][Fc][FB] A2 [^GB]2 | [Gc]6[K:bass][K:treble] z2 | eeed c2 Bc | [Fd][Fd][Gc][Ad] edcB | %16
 AA^GA B2 c2 |[M:3/4] [Fd]6 |] %18
V:2
 z4 z2 [D,D][D,D] | [D,A,D][D,A,D][D,A,D][D,A,] [D,D][D,A,][D,A,]D, | D,6[K:treble] GD | E6 z2 | %4
 D6[K:bass] z2 | D,D,D,D, D,[D,A,][D,B,][D,C] | [D,D]6 [D,D][D,A,] | [E,A,]3 [E,E] [E,E]2 [E,D]2 | %8
[M:7/8][K:treble] [A,CA]- [A,CA]3 [A,CG]3 |[M:1/4] [A,G][A,G] | %10
[M:4/4][K:bass] [D,A,][D,A,][D,A,][D,A,] [D,D]2 [D,D]2 | .[A,D]2 z2 z4 | %12
 [D,A,][D,A,][D,A,][D,A,] [F,D]2 [=F,D]2 | A,6[K:treble] [A,EG][A,DF] | %14
 [A,CG][A,CG][A,CG][A,DF] [A,EG]2 [A,CG][A,G] | %15
 [D,A,][D,A,][E,A,][F,A,][K:treble] [G,B,G]2 [^G,D=F][G,DF] | %16
 [A,DF][K:bass][F,A,D][=F,B,D][^F,A,D][K:treble] [G,D]2 [A,G]2 |[M:3/4][K:bass] [D,A,]6 |] %18
V:3
 x8 | x8 | x8 | z2 CC C2 AE | z2 A,A, A,2 [DFA][DEG] | x8 | x8 | x8 |[M:7/8] x7 |[M:1/4] x2 | %10
[M:4/4] x8 | F6 z2 | x8 | z[K:bass] D,C,B,, A,,2[K:treble] cd | x8 | x8 | x8 |[M:3/4] x6 |] %18
V:4
 x8 | x8 | x6[K:treble] x2 | z2 A,A, A,2 FC | z2[K:bass] D,D, D,2 D,D, | x8 | x8 | x8 | %8
[M:7/8][K:treble] x7 |[M:1/4] x2 |[M:4/4][K:bass] x8 | D,2- [D,-C][D,-B,] [D,A,]2 A,A, | x8 | %13
 .E,2 z2 z4[K:treble] | x8 | x4[K:treble] x4 | x[K:bass] x3[K:treble] x4 |[M:3/4][K:bass] x6 |] %18

